icons/disinfecting_wipes.svg

<svg width="48" height="48" viewBox="0 0 48 48" fill="none" xmlns="http://www.w3.org/2000/svg">
<path d="M28 33.1648V27C24.7953 27.6109 23.031 27.6293 20 27V33.1648C23.0938 34.0655 24.8815 34.1656 28 33.1648Z" fill="black"/>
<path d="M27.8849 8.57694C28.3947 8.78936 28.6358 9.37483 28.4233 9.88463L25.9233 15.8846C25.7109 16.3944 25.1254 16.6355 24.6156 16.4231C24.1058 16.2107 23.8648 15.6252 24.0772 15.1154L26.5772 9.1154C26.7896 8.6056 27.3751 8.36452 27.8849 8.57694Z" fill="black"/>
<path fill-rule="evenodd" clip-rule="evenodd" d="M33.4139 5.08965C33.8992 5.31024 34.1262 5.87276 33.9298 6.36837L30.0919 16.0553C31.2818 16.5789 32 17.258 32 17.9999C32 18.0238 31.9993 18.0477 31.9978 18.0715H32V41.0001C32 42.6569 28.4183 44.0001 24 44.0001C19.5817 44.0001 16 42.657 16 41.0001V18.0715H16.0022C16.0007 18.0477 16 18.0238 16 17.9999C16 17.207 16.8203 16.4859 18.1599 15.9496L15.0441 5.79333C14.9052 5.34051 15.103 4.85235 15.5179 4.62396C15.9309 4.39665 16.4463 4.48875 16.755 4.84418L16.7668 4.85706C16.7801 4.87134 16.804 4.89639 16.8383 4.9299C16.9069 4.99711 17.016 5.09726 17.1633 5.21254C17.4594 5.44426 17.8993 5.72888 18.4669 5.93527C19.5546 6.33083 21.2291 6.48539 23.4536 5.16172C25.5262 3.70226 28.0924 3.7513 29.9825 4.07714C30.9543 4.24467 31.804 4.49489 32.41 4.70243C32.7141 4.80655 32.9595 4.90084 33.1313 4.97021C33.2173 5.00492 33.285 5.03347 33.3327 5.05398C33.3565 5.06424 33.3754 5.07249 33.389 5.07851L33.4055 5.08584L33.4107 5.0882L33.4139 5.08965ZM23.9406 20.9998C21.6885 20.9937 19.6577 20.6386 18.2137 20.0715H18V40.7088C18.1725 40.8474 18.5037 41.0456 19.0454 41.2488C20.2159 41.6877 21.9672 42.0001 24 42.0001C26.0328 42.0001 27.7841 41.6877 28.9546 41.2488C29.4963 41.0456 29.8275 40.8474 30 40.7088V20.0715H29.7863C28.3423 20.6386 26.3115 20.9937 24.0594 20.9998C24.0396 20.9999 24.0198 20.9999 24 20.9999C23.9802 20.9999 23.9604 20.9999 23.9406 20.9998ZM29.6428 6.04813C27.9184 5.75085 26.0028 5.79863 24.5814 6.81389C24.5598 6.82936 24.5375 6.84395 24.5147 6.85764C21.7552 8.51336 19.4405 8.41748 17.7834 7.81491L17.7529 7.80373L20.8505 17.9005H27.2097L31.6977 6.57272C31.1685 6.39438 30.4502 6.18733 29.6428 6.04813ZM17.8978 40.6151C17.896 40.6126 17.8949 40.6114 17.8948 40.6114C17.8948 40.6114 17.895 40.6117 17.8954 40.6122L17.8978 40.6151Z" fill="black"/>
</svg>

<svg
  xmlns="http://www.w3.org/2000/svg"
  width="24"
  height="24"
  viewBox="0 0 24 24"
  fill="none"
  stroke="currentColor"
  stroke-width="2"
  stroke-linecap="round"
  stroke-linejoin="round"
>
  <path d="M28 33.165V27c-3.205.61-4.969.63-8 0v6.165c3.094.9 4.881 1 8 0" />
  <path d="M27.885 8.577a1 1 0 0 1 .538 1.308l-2.5 6a1 1 0 0 1-1.846-.77l2.5-6a1 1 0 0 1 1.308-.538" />
  <path
    fill-rule="evenodd"
    d="M33.414 5.09a1 1 0 0 1 .516 1.278l-3.838 9.687C31.282 16.58 32 17.258 32 18q0 .036-.002.072H32V41c0 1.657-3.582 3-8 3s-8-1.343-8-3V18.072h.002L16 18c0-.793.82-1.514 2.16-2.05L15.044 5.793a1 1 0 0 1 1.711-.949l.012.013q.02.022.071.073c.069.067.178.167.325.283.296.231.736.516 1.304.722 1.088.396 2.762.55 4.987-.773 2.072-1.46 4.638-1.41 6.529-1.085a16 16 0 0 1 3.35.977l.056.025.017.007.005.002zM23.94 21c-2.252-.006-4.283-.361-5.727-.928H18v20.637c.172.138.504.337 1.045.54 1.17.439 2.922.751 4.955.751s3.784-.312 4.955-.751c.541-.203.873-.402 1.045-.54V20.07h-.214c-1.444.568-3.475.923-5.727.929h-.119m5.702-14.952c-1.725-.297-3.64-.25-5.062.766l-.066.044c-2.76 1.655-5.074 1.56-6.732.957l-.03-.011L20.85 17.9h6.359l4.488-11.328a14 14 0 0 0-2.055-.525M17.898 40.615l-.003-.004v.001z"
    clip-rule="evenodd"
  />
</svg>
